24x24/apps/keepassx.svg

<svg height="24" width="24" xmlns="http://www.w3.org/2000/svg"><rect height="20" opacity=".2" rx="1" width="20" x="2" y="2.5"/><rect fill="#38a334" height="20" rx="1" width="20" x="2" y="2"/><path d="m15.5 5.5a3.5 3.5 0 0 0 -3.5 3.5 3.5 3.5 0 0 0 .324 1.46l-7.324 7.326v1.714h1.715l1-1h1.285v-1.285l.715-.715h3.285v-2h-1.285l2.322-2.322a3.5 3.5 0 0 0 1.463.322 3.5 3.5 0 0 0 3.5-3.5 3.5 3.5 0 0 0 -3.5-3.5zm.5 2a1 1 0 0 1 1 1 1 1 0 0 1 -1 1 1 1 0 0 1 -1-1 1 1 0 0 1 1-1z" opacity=".2"/><path d="m15.5 5a3.5 3.5 0 0 0 -3.5 3.5 3.5 3.5 0 0 0 .324 1.46l-7.324 7.326v1.714h1.715l1-1h1.285v-1.285l.715-.715h3.285v-2h-1.285l2.322-2.322a3.5 3.5 0 0 0 1.463.322 3.5 3.5 0 0 0 3.5-3.5 3.5 3.5 0 0 0 -3.5-3.5zm.5 2a1 1 0 0 1 1 1 1 1 0 0 1 -1 1 1 1 0 0 1 -1-1 1 1 0 0 1 1-1z" fill="#f4f4f7"/><path d="m5 9.214v-1.714h1.714l10.286 10.286v1.714h-1.714z" opacity=".2"/><path d="m5 8.714v-1.714h1.714l10.286 10.286v1.714h-1.714z" fill="#454545"/><path d="m3 2c-.554 0-1 .446-1 1v.5c0-.554.446-1 1-1h18c.554 0 1 .446 1 1v-.5c0-.554-.446-1-1-1z" fill="#f4f4f7" opacity=".1"/></svg>

<svg height="24" width="24" xmlns="http://www.w3.org/2000/svg">
    <rect height="20" opacity=".2" rx="1" width="20" x="2" y="2.5"/>
    <rect fill="#38a334" height="20" rx="1" width="20" x="2" y="2"/>
    <path d="M15.5 5.5A3.5 3.5 0 0 0 12 9a3.5 3.5 0 0 0 .324 1.46L5 17.786V19.5h1.715l1-1H9v-1.285l.715-.715H13v-2h-1.285l2.322-2.322a3.5 3.5 0 0 0 1.463.322A3.5 3.5 0 0 0 19 9a3.5 3.5 0 0 0-3.5-3.5zm.5 2a1 1 0 0 1 1 1 1 1 0 0 1-1 1 1 1 0 0 1-1-1 1 1 0 0 1 1-1z" opacity=".2"/>
    <path d="M15.5 5A3.5 3.5 0 0 0 12 8.5a3.5 3.5 0 0 0 .324 1.46L5 17.286V19h1.715l1-1H9v-1.285L9.715 16H13v-2h-1.285l2.322-2.322A3.5 3.5 0 0 0 15.5 12 3.5 3.5 0 0 0 19 8.5 3.5 3.5 0 0 0 15.5 5zm.5 2a1 1 0 0 1 1 1 1 1 0 0 1-1 1 1 1 0 0 1-1-1 1 1 0 0 1 1-1z" fill="#f4f4f7"/>
    <path d="M5 9.214V7.5h1.714L17 17.786V19.5h-1.714z" opacity=".2"/>
    <path d="M5 8.714V7h1.714L17 17.286V19h-1.714z" fill="#454545"/>
    <path d="M3 2c-.554 0-1 .446-1 1v.5c0-.554.446-1 1-1h18c.554 0 1 .446 1 1V3c0-.554-.446-1-1-1z" fill="#f4f4f7" opacity=".1"/>
</svg>
